image/r.svg

<svg fill="none" height="58" viewBox="0 0 60 58" width="60" xmlns="http://www.w3.org/2000/svg"><path d="m59.1344 29.195c0 15.61-12.7026 28.0773-29.0118 28.0773-16.4269 0-29.1226-12.4603-29.1226-28.0773 0-15.7277 12.6957-28.195 29.1226-28.195 16.3092-.00692 29.0118 12.4603 29.0118 28.195zm-6.1748 0c0-12.7026-9.9059-22.48402-22.8439-22.48402-13.0488 0-22.95478 9.78142-22.95478 22.48402 0 12.5849 9.90598 22.2486 22.95478 22.2486 12.938-.0069 22.8439-9.6706 22.8439-22.2486zm-11.0758 10.1344c-.0247 1.5506.4619 3.0662 1.3845 4.3127h-6.0572c-.8168-1.0522-1.0522-2.4506-1.1698-4.3127l-.2285-3.0251c-.2354-3.1497-1.0522-4.195-3.9665-4.195h-7.1994v11.5328h-5.8286v-29.718h12.9726c6.5209 0 10.5982 3.0321 10.5982 8.5077 0 2.769-1.163 5.4756-4.3127 6.874 2.4506 1.0452 3.3782 3.0251 3.4959 5.8217zm-10.0168-12.2111c2.769 0 4.4304-1.516 4.4304-3.9597 0-2.6789-1.6337-3.9596-4.7765-3.9596h-6.874v7.9193z" fill="#ff4d00" stroke="#ff4d00" stroke-miterlimit="10" stroke-width=".58815"/></svg>

<svg width="60" height="58" viewBox="0 0 60 58" fill="none" xmlns="http://www.w3.org/2000/svg">
<path d="M59.1344 29.195C59.1344 44.805 46.4318 57.2723 30.1226 57.2723C13.6957 57.2723 1 44.812 1 29.195C1 13.4673 13.6957 1 30.1226 1C46.4318 0.99308 59.1344 13.4603 59.1344 29.195ZM52.9596 29.195C52.9596 16.4924 43.0537 6.71098 30.1157 6.71098C17.0669 6.71098 7.16092 16.4924 7.16092 29.195C7.16092 41.7799 17.0669 51.4436 30.1157 51.4436C43.0537 51.4367 52.9596 41.773 52.9596 29.195ZM41.8838 39.3294C41.8591 40.88 42.3457 42.3956 43.2683 43.6421H37.2111C36.3943 42.5899 36.1589 41.1915 36.0413 39.3294L35.8128 36.3043C35.5774 33.1546 34.7606 32.1093 31.8463 32.1093H24.6469V43.6421H18.8183V13.9241H31.7909C38.3118 13.9241 42.3891 16.9562 42.3891 22.4318C42.3891 25.2008 41.2261 27.9074 38.0764 29.3058C40.527 30.351 41.4546 32.3309 41.5723 35.1275L41.8838 39.3294ZM31.867 27.1183C34.636 27.1183 36.2974 25.6023 36.2974 23.1586C36.2974 20.4797 34.6637 19.199 31.5209 19.199H24.6469V27.1183H31.867Z" fill="#FF4D00" stroke="#FF4D00" stroke-width="0.58815" stroke-miterlimit="10"/>
</svg>
